X: 21
T:Banbury Bill
M:4/4
L:1/4
O:Bampton
P:A(AB3)3A
K:D
P:A
DEFD|GAB2| EFGA/G/  |FGA2   |
ADFA|def2|{ga}geBc  |d2d2   |]
P:B
defd|cde2| Bcde/d/  |cBAB/c/|
dDD2|FGA2|B/c/dc/d/e|d2d2   |]
</abc>
<abc>
